bank-logos/l_sE7lgzEYTGWkaLo7EyWGdA.svg

<?xml version="1.0" encoding="utf-8"?>
<!-- Generator: Adobe Illustrator 23.0.6, SVG Export Plug-In . SVG Version: 6.00 Build 0)  -->
<svg version="1.1"
	 id="Layer_1" inkscape:output_extension="org.inkscape.output.svg.inkscape" inkscape:version="0.46" sodipodi:docname="notice_of_meeting_2006.svg" sodipodi:version="0.32" xmlns:cc="http://creativecommons.org/ns#" xmlns:dc="http://purl.org/dc/elements/1.1/" xmlns:inkscape="http://www.inkscape.org/namespaces/inkscape" xmlns:rdf="http://www.w3.org/1999/02/22-rdf-syntax-ns#" xmlns:sodipodi="http://sodipodi.sourceforge.net/DTD/sodipodi-0.dtd" xmlns:svg="http://www.w3.org/2000/svg"
	 xmlns="http://www.w3.org/2000/svg" xmlns:xlink="http://www.w3.org/1999/xlink" x="0px" y="0px" viewBox="0 0 68 68"
	 style="enable-background:new 0 0 68 68;" xml:space="preserve">
<style type="text/css">
	.st0{fill:#E83860;}
	.st1{fill:#DFC586;}
	.st2{fill:#327787;}
	.st3{fill:#8ABB9C;}
</style>
<path id="path14" class="st0" d="M68.0999985,48.7999992c0,0.7999992-0.3000031,1.5999985-0.9000015,2.2000008L53,65.1999969
	C52.2000008,66,50.7999992,65.3999939,50.7999992,64.2999954V32.5999985l17.0000038-16.8999996H68v33.0999985"/>
<path id="path16" class="st1" d="M56.7999992,4.4000001c-0.5-0.5-1.2999992-0.5-1.7999992,0l-21,21h-0.2999992v23.6999989
	L34,49.6999969l16.9000015-16.9000015l17.2000046-17.2000008L56.7999992,4.4000001"/>
<path id="path18" class="st2" d="M-0.1,48.7999992C-0.1,49.5999985,0.2,50.3999977,0.8,51L15,65.1999969
	C15.8000002,66,17.2000008,65.3999939,17.2000008,64.2999954V32.5999985l-17-16.8999996h-0.2L-0.1,48.7999992"/>
<path id="path20" class="st3" d="M13,4.4000001c-0.5-0.5-1.3000002-0.5-1.8000002,0L-0.1,15.6999998l17.2000008,17.2000008
	L34,49.7999992V25.3999996L13,4.4000001"/>
</svg>

<svg xmlns="http://www.w3.org/2000/svg" viewBox="0 0 68 68" style="enable-background:new 0 0 68 68" xml:space="preserve"><path d="M68.1 48.8c0 .8-.3 1.6-.9 2.2L53 65.2c-.8.8-2.2.2-2.2-.9V32.6l17-16.9h.2v33.1" style="fill:#e83860"/><path d="M56.8 4.4c-.5-.5-1.3-.5-1.8 0l-21 21h-.3v23.7l.3.6 16.9-16.9 17.2-17.2L56.8 4.4" style="fill:#dfc586"/><path d="M-.1 48.8c0 .8.3 1.6.9 2.2L15 65.2c.8.8 2.2.2 2.2-.9V32.6L.2 15.7H0l-.1 33.1" style="fill:#327787"/><path d="M13 4.4c-.5-.5-1.3-.5-1.8 0L-.1 15.7l17.2 17.2L34 49.8V25.4l-21-21" style="fill:#8abb9c"/></svg>
